X: 1
T: The First Pint
R: jig
M: 6/8
L: 1/8
K: Dmaj
|: dAB d2A | Bdf efd | ~B3 ede | faa g2f |
dAB d2A | Bdf efd | ~B3 edB | AFE DFA :|
|: ~B3 BAF | ABc d2B | ~A3 AFE | EFA DFA |
~B3 BAF | ABc d2c | ~d3 dBA | abg edc :|


Tune 3161	Setting 24466

